dist/img/logo-sbly.svg

<?xml version="1.0" encoding="UTF-8"?>
<svg width="114px" height="48px" viewBox="0 0 114 48" version="1.1" xmlns="http://www.w3.org/2000/svg" xmlns:xlink="http://www.w3.org/1999/xlink">
    <!-- Generator: Sketch 46.2 (44496) - http://www.bohemiancoding.com/sketch -->
    <title>Page 1</title>
    <desc>Created with Sketch.</desc>
    <defs></defs>
    <g id="SBLY-homepage" stroke="none" stroke-width="1" fill="none" fill-rule="evenodd">
        <g id="sbly-homepage" transform="translate(-60.000000, -32.000000)" fill="#231F20">
            <g id="01-header">
                <g id="Page-1" transform="translate(60.000000, 32.000000)">
                    <path d="M0,33.8363024 L7.29177694,32.9709957 C7.78650667,38.8419138 8.89886476,40.6346037 13.4718228,40.6346037 C18.786562,40.6346037 19.6518687,38.4719639 19.6518687,34.8251348 C19.6518687,25.0609633 0.864679715,27.3477559 0.864679715,12.5779729 C0.864679715,5.40909462 3.83117698,0.27995752 13.6574248,0.27995752 C24.0392247,0.27995752 25.6463126,5.28556895 26.3260173,13.690331 L19.157139,14.3079594 C18.6630363,8.80824526 17.9212552,6.95410609 13.4718228,6.95410609 C9.02239044,6.95410609 8.09563437,8.87032162 8.09563437,12.0838702 C8.09563437,21.2297863 26.8821963,19.3141979 26.8821963,34.3931085 C26.8821963,41.9319368 24.1013011,47.3702016 13.4718228,47.3702016 C2.84234456,47.3702016 0.679704721,41.9319368 0,33.8363024" id="Fill-1"></path>
                    <path d="M45.794604,40.5726527 C50.4296384,40.5726527 51.4178438,39.0276413 51.4178438,33.6514528 L51.4178438,32.5384677 C51.4178438,27.1622792 50.4296384,25.5558185 45.794604,25.5558185 L40.1092878,25.5558185 L40.1092878,40.5726527 L45.794604,40.5726527 Z M44.8672209,19.2522469 C49.3172803,19.2522469 50.4910877,17.8307611 50.4910877,13.5669308 L50.4910877,12.7630733 C50.4910877,8.43779365 49.5022553,7.07775717 44.8672209,7.07775717 L40.1092878,7.07775717 L40.1092878,19.2522469 L44.8672209,19.2522469 Z M32.8168838,0.650659947 L44.5587202,0.650659947 C55.1261221,0.650659947 57.844941,3.98773423 57.844941,12.2075213 L57.844941,12.3931233 C57.844941,17.6457861 56.5469809,20.6737327 52.5922782,21.9710658 C57.289389,23.3311023 58.6487984,26.7296259 58.6487984,32.9711211 L58.6487984,34.4546832 C58.6487984,43.538523 55.8058268,46.99975 45.2998742,46.99975 L32.8168838,46.99975 L32.8168838,0.650659947 Z" id="Fill-3"></path>
                    <polygon id="Fill-5" points="65.4479148 0.650659947 72.8638445 0.650659947 72.8638445 40.1399994 86.8918464 40.1399994 87.8192295 46.99975 65.4479148 46.99975"></polygon>
                    <polygon id="Fill-7" points="95.5455409 29.3870581 85.1016647 0.650722651 92.64112 0.650722651 99.3767179 20.6117191 99.4387942 20.6117191 106.050866 0.650722651 113.40472 0.650722651 103.02292 29.3870581 103.02292 46.9998127 95.5455409 46.9998127"></polygon>
                </g>
            </g>
        </g>
    </g>
</svg>

<svg width="114" height="48" viewBox="0 0 114 48" xmlns="http://www.w3.org/2000/svg">
  <title>
    Page 1
  </title>
  <path d="M0 33.836l7.292-.865c.495 5.875 1.607 7.668 6.18 7.668 5.315 0 6.18-2.163 6.18-5.81C19.652 25.062.865 27.35.865 12.58.865 5.407 3.83.28 13.657.28c10.382 0 11.99 5.006 12.67 13.41l-7.17.618c-.494-5.5-1.236-7.354-5.685-7.354-4.45 0-5.376 1.916-5.376 5.13 0 9.146 18.786 7.23 18.786 22.31 0 7.538-2.78 12.976-13.41 12.976S.68 41.932 0 33.836m45.795 6.737c4.635 0 5.623-1.545 5.623-6.922v-1.11c0-5.374-.988-6.98-5.623-6.98H40.11v15.017h5.685zm-.928-21.32c4.45 0 5.624-1.422 5.624-5.686v-.804c0-4.325-.985-5.685-5.62-5.685h-4.76v12.174h4.758zM32.817.65H44.56c10.565 0 13.284 3.34 13.284 11.56v.185c0 5.253-1.298 8.28-5.253 9.578 4.7 1.36 6.06 4.76 6.06 11v1.485C58.65 43.54 55.805 47 45.3 47H32.817V.65zm32.63 0h7.417v39.49h14.028L87.82 47H65.447m30.1-17.613L85.1.65h7.54l6.735 19.962h.062l6.61-19.96h7.354l-10.38 28.735V47h-7.48" fill="#231F20" fill-rule="evenodd"/>
</svg>
